public/assets/images/Pending-white.svg

<svg width="20" height="20" viewBox="0 0 20 20" fill="none" xmlns="http://www.w3.org/2000/svg">
<rect x="1" y="1" width="18.0033" height="18.0033" rx="9.00167" fill="#FFCC49"/>
<rect x="1" y="1" width="18.0033" height="18.0033" rx="9.00167" stroke="#F3F5F6" stroke-width="2"/>
<path d="M11.5955 7.81973L9.57265 5.79688V7.16175C7.821 7.37959 6.46057 8.87339 6.46057 10.6873C6.46057 12.5012 7.81655 13.995 9.57265 14.2128V13.3148C8.31004 13.1014 7.34974 12.0077 7.34974 10.6873C7.34974 9.36688 8.31004 8.2732 9.57265 8.0598V9.79812L11.5955 7.81973ZM13.5428 10.2427C13.4672 9.62474 13.2227 9.029 12.8226 8.51328L12.1913 9.14459C12.4313 9.47802 12.5825 9.85592 12.6447 10.2427H13.5428ZM10.4618 13.3103V14.2084C11.0798 14.1328 11.68 13.8927 12.1957 13.4926L11.5555 12.8524C11.2221 13.0925 10.8486 13.2481 10.4618 13.3103ZM12.1913 12.2344L12.8226 12.8613C13.2227 12.3456 13.4672 11.7498 13.5428 11.1319H12.6447C12.5825 11.5187 12.4313 11.8966 12.1913 12.2344Z" fill="white"/>
</svg>

<svg width="20" height="20" fill="none" xmlns="http://www.w3.org/2000/svg"><rect x="1" y="1" width="18.003" height="18.003" rx="9.002" fill="#FFCC49"/><rect x="1" y="1" width="18.003" height="18.003" rx="9.002" stroke="#F3F5F6" stroke-width="2"/><path d="M11.595 7.82L9.573 5.797v1.365a3.555 3.555 0 00-3.112 3.525 3.551 3.551 0 003.112 3.526v-.898a2.666 2.666 0 01-2.223-2.628c0-1.32.96-2.414 2.223-2.627v1.738l2.022-1.978zm1.948 2.423a3.515 3.515 0 00-.72-1.73l-.632.632c.24.333.391.71.454 1.098h.898zm-3.081 3.067v.898a3.523 3.523 0 001.734-.715l-.64-.64c-.334.24-.707.395-1.094.457zm1.73-1.076l.63.627c.4-.515.645-1.111.72-1.73h-.897a2.621 2.621 0 01-.454 1.103z" fill="#fff"/></svg>
